X:1
T:Du mal que iay
T:Jean Maillard
T:Source : Livre XI de 28 chansons nouvelles à 4 parties---Paris---P.Attaingnant---1542. Editor : André Vierendeels (30/05/18) Notes : Original clefs : G2, C2, C3, C4 Original note values have been halved Editorial accidentals above the staff Square brackets indicate ligatures
T:Du mal que iay
T:©
T:©
T:©
T:©
C:Jean Maillard
Z:©
%%score [ 1 [ 2 3 ] 4 ]
L:1/8
Q:1/4=120
M:2/2
K:C
V:1 treble nm="Soprano" snm="S"
V:2 treble nm="Alto 1" snm="A 1"
V:3 treble nm="Alto 2" snm="A 2"
V:4 treble-8 nm="Tenor" snm="T"
V:1
 z4 A4- | A4 A4 | c4 d4 | z2 A2 c2 c2 | G3 A B4 | A8 | z2 e2 f2 f2 | d2 d2 c3 d | ef e3 d d2- | %9
w: Du|_ mal|que iay,|la, qui m'en|gue- * ri-|ra,|las, qui m'en|gue- ri- * *||
 d2 c2 d4- | d4 z2 c2 | c2 c2 B2 G2 | A2 c2 B2 A2- | A2 G2 A4 | c4 c2 c2 | d2 A2 cBcd | %16
w: * * ra?|_ Si|ie l'ac- cu- se,|poinct ne se prou-|* ve- ra,|ie suis na-|vré voi- re'à _ _ _|
 e3 f g2 f2- | fe e4 d2 | e4 z2 c2 | d2 c4 B2 | B8 | A4 z2 A2 | A2 A2 d2 d2 | c4 c4 | A8 | A4 c4 | %26
w: _ mor- tel- le'oul-|* * tran- *|ce, et|si ie _|suis|seur, que|sans re- con- gnois-|san- ce,|à|ma plain-|
 d4 z2 A2 | c2 c2 G3 A | B4 A4- | A4 z2 e2 | f2 f2 d2 d2 | c3 d ef e2- | ed d4 c2 | dccB/A/ B4 | %34
w: te foy|l'on n'a- iou- *|ste- ra,|_ foy|l'on n'a- iou- ste-|||ra, _ _ _ _ _|
 A8 | A8 | A4 c4 | d4 z2 A2 | c2 c2 G3 A | B4 A4- | A4 z2 e2 | f2 f2 d2 d2 | c3 d ef e2- | %43
w: à|ma|plain- *|te, foy|l'on a- iou- *|ste- ra,|_ foy|l'on a- iou- ste-||
 ed d4 c2 | d8 |] %45
w: |ra|
V:2
 z8 | E4 C2 D2 | A,2 A4 G2 | A8 | z2 E2 G2 G2 | F2 E3 D D2- | D2 C2 D4 | z2 A4 c2 | c2 G4 G2 | A8 | %10
w: |Du mal que|iay, _ _|_|las, qui m'en|gue- ri- * *|* * ra,|las, qui|m'en gue- ri-|ra?|
 z2 A2 A2 A2 | EDEF G4 | z2 E2 G2 E2 | E2 E2 C2 E2 | E4 FEFG | A4 z2 A2 | A2 G2 c4 | c4 A4 | %18
w: Si ie l'ac-|cu- * * * se,|poinct ne se|prou- ve- ra, ie|suis na- * * *|vré, voi-|re'à mor- tel-|le'oul- tran-|
 A2 G2 G4 | A4 G4- | G4 z2 D2 | F2 F2 EDCB, | A,2 A4 G2 | A4 z2 E2 | C2 E2 A,B,CD | E2 F3 E A2- | %26
w: ce, et si|suis seur,|_ que|sans re- con- * * *|* gnois- san-|ce, à|ma plain- te, _ _ _|_ _ _ _|
 A2 G2 A4- | A4 z2 E2 | G2 G2 F2 E2- | ED D4 C2 | D4 z2 A2- | A2 c2 c2 G2- | G2 G2 A4 | F2 A4 G2- | %34
w: |* foy|l'on a- iou- ster-||ra, foy|_ l'on a- iou-|* ste- *|ra, à ma|
 G2 F2 E4 | z4 z2 E2 | C2 D2 A,2 A2- | A2 G2 A4- | A4 z2 E2 | G2 G2 F2 E2- | ED D4 C2 | D4 z2 A2- | %42
w: _ plain- te,|à|ma plain- * *|* * te,|_ foy|l'on a- iuo- *|* * * ste-|ra, foy|
 A2 c2 c2 G2- | G2 G2 A4 | F8 |] %45
w: _ l'on a- *|* iou- ste-|ra.|
V:3
 E4 C2 D2 | A,B,CD E3 F | E4 z2 D2 | F2 F2 C3 D | EF E3 D D2- | D2 C2 D4 | z4 z2 D2- | %7
w: Du mal que|iay, _ _ _ _ _|_ las,|qui m'en gue- *||* ri- ta,|qui|
 D2 F2 F2 E2- | E2 C2 D4 | E4 D2 F2 | F2 F2 E4 | E2 C2 D2 E2 | CDEC DCB,A, | B,2 B,2 A,4 | %14
w: _ m'en gue- ri-||* ra? Si|ie l'ac- cu-|se, poinct ne se|prou- * * * * * * *|* ve- ra,|
 z2 A2 AGFE | F2 F2 E2 A,2 | A,B,CD E2 F2 | G2 E2 F4 | E4 z2 E2 | F4 D4 | E4 D4 | z2 A,2 C3 D | %22
w: ie suis _ _ _|_ na- vré voi-|re'à _ _ _ _ mor-|tel- le'oul- tran-|ce, et|si suis|_ seur,|que sans re-|
 E2 F2 D4 | E8 | z4 E4 | C2 D2 A,4 | z2 D2 F2 F2 | C3 D EF E2- | ED D4 C2 | D4 z4 | z2 F2 F2 E2- | %31
w: con- gnois- san-|ce,|à|ma plain- te,|foy l'on n'a-|iou- * * * *|* * * ste-|ra,|foy l'on a-|
 E2 C2 D4 | E4 D4 | D2 F2 E4 | z4 z2 E2 | C2 E2 A,B,CD | E2 F2 E4 | z2 D2 F2 F2 | C3 D EF E2- | %39
w: iou- * *|* ste-|ra, _ _|à|ma plain- te, _ _ _|_ _ _|foy l'on a-|iou- * * * *|
 ED D4 C2 | D4 z4 | z2 D4 F2 | F2 E4 C2 | D4 E4 | D8 |] %45
w: * * * ste-|ra|foy l'on|a- iou- *|ste- *|ra.|
V:4
 z8 | z8 | A4 F2 G2 | DEFG A2 A2 | c2 c2 G2 G2 | A3 G F2 ED | E4 D4 | z4 A4 | c2 c2 G2 B2 | %9
w: ||Du mal que|iay, _ _ _ _ las,|qui m'en gue- ri-|ra, _ _ _ _|_ _|las,|qui m'en gue- ri-|
 A4 D2 d2 | d2 d2 AGAB | c3 B/A/ G2 E2 | A2 A2 G2 A2 | E4 z2 A2 | A4 F4 | D2 D2 AGAB | c6 F2 | %17
w: * ra? Si|ie l'ac- cu- * * *|* * * se, poinct|ne se prou- ve-|ra, ie|suis na-|vré voi- re'à _ _ _|_ mor-|
 c2 c2 d4 | A2 c2 c4 | F4 G4 | z2 E2 G2 G2 | DEFG A3 B | c2 d2 B4 | A8- | A4 z4 | z4 z2 A2 | %26
w: tel- le'oul- tran-|ce, et si|suis seur,|que sans re-|con- * * * * *|* gnois- san-|ce,|(ce)|à|
 F2 G2 DEFG | A2 A2 c2 c2 | G2 G2 A3 G | F2 ED E4 | D4 z4 | A4 c2 c2 | G2 B2 A4 | z4 z2 e2 | %34
w: ma plain- te _ _ _|_ foy l'on a-|iou- sre- ra, _|_ _ _ _||foy l'on a-|iou- ste- ra,|à|
 c2 d2 A4 | z8 | z4 z2 A2 | F2 G2 DEFG | A2 A2 c2 c2 | G2 G2 A3 G | F2 ED E4 | D4 z4 | A4 c2 c2 | %43
w: ma plain- te,||à|ma plain- te _ _ _|_ foy l'on a-|iou- ste- ra, _|_ _ _ _||foy l'on a-|
 G2 B2 A4 | D8 |] %45
w: iou- * ste-|ra.|

